src/images/python-icon.svg

<?xml version="1.0" encoding="utf-8"?><!-- Uploaded to: SVG Repo, www.svgrepo.com, Generator: SVG Repo Mixer Tools -->
<svg width="800px" height="800px" viewBox="0 0 32 32" fill="none" xmlns="http://www.w3.org/2000/svg">
<path fill-rule="evenodd" clip-rule="evenodd" d="M13.0164 2C10.8193 2 9.03825 3.72453 9.03825 5.85185V8.51852H15.9235V9.25926H5.97814C3.78107 9.25926 2 10.9838 2 13.1111L2 18.8889C2 21.0162 3.78107 22.7407 5.97814 22.7407H8.27322V19.4815C8.27322 17.3542 10.0543 15.6296 12.2514 15.6296H19.5956C21.4547 15.6296 22.9617 14.1704 22.9617 12.3704V5.85185C22.9617 3.72453 21.1807 2 18.9836 2H13.0164ZM12.0984 6.74074C12.8589 6.74074 13.4754 6.14378 13.4754 5.40741C13.4754 4.67103 12.8589 4.07407 12.0984 4.07407C11.3378 4.07407 10.7213 4.67103 10.7213 5.40741C10.7213 6.14378 11.3378 6.74074 12.0984 6.74074Z" fill="url(#paint0_linear_87_8204)"/>
<path fill-rule="evenodd" clip-rule="evenodd" d="M18.9834 30C21.1805 30 22.9616 28.2755 22.9616 26.1482V23.4815L16.0763 23.4815L16.0763 22.7408L26.0217 22.7408C28.2188 22.7408 29.9998 21.0162 29.9998 18.8889V13.1111C29.9998 10.9838 28.2188 9.25928 26.0217 9.25928L23.7266 9.25928V12.5185C23.7266 14.6459 21.9455 16.3704 19.7485 16.3704L12.4042 16.3704C10.5451 16.3704 9.03809 17.8296 9.03809 19.6296L9.03809 26.1482C9.03809 28.2755 10.8192 30 13.0162 30H18.9834ZM19.9015 25.2593C19.1409 25.2593 18.5244 25.8562 18.5244 26.5926C18.5244 27.329 19.1409 27.9259 19.9015 27.9259C20.662 27.9259 21.2785 27.329 21.2785 26.5926C21.2785 25.8562 20.662 25.2593 19.9015 25.2593Z" fill="url(#paint1_linear_87_8204)"/>
<defs>
<linearGradient id="paint0_linear_87_8204" x1="12.4809" y1="2" x2="12.4809" y2="22.7407" gradientUnits="userSpaceOnUse">
<stop stop-color="#327EBD"/>
<stop offset="1" stop-color="#1565A7"/>
</linearGradient>
<linearGradient id="paint1_linear_87_8204" x1="19.519" y1="9.25928" x2="19.519" y2="30" gradientUnits="userSpaceOnUse">
<stop stop-color="#FFDA4B"/>
<stop offset="1" stop-color="#F9C600"/>
</linearGradient>
</defs>
</svg>

<svg width="800" height="800" viewBox="0 0 32 32" fill="none" xmlns="http://www.w3.org/2000/svg"><path fill-rule="evenodd" clip-rule="evenodd" d="M13.016 2C10.82 2 9.038 3.725 9.038 5.852v2.667h6.886v.74H5.978C3.781 9.26 2 10.984 2 13.111v5.778c0 2.127 1.781 3.852 3.978 3.852h2.295v-3.26c0-2.127 1.781-3.851 3.978-3.851h7.345c1.859 0 3.366-1.46 3.366-3.26V5.852C22.962 3.725 21.18 2 18.984 2h-5.968Zm-.918 4.74c.76 0 1.377-.596 1.377-1.333 0-.736-.616-1.333-1.377-1.333-.76 0-1.377.597-1.377 1.333 0 .737.617 1.334 1.377 1.334Z" fill="url(#a)"/><path fill-rule="evenodd" clip-rule="evenodd" d="M18.983 30c2.197 0 3.979-1.724 3.979-3.852v-2.666h-6.886v-.741h9.946c2.197 0 3.978-1.725 3.978-3.852V13.11c0-2.127-1.781-3.852-3.978-3.852h-2.295v3.26c0 2.127-1.782 3.851-3.979 3.851h-7.344c-1.859 0-3.366 1.46-3.366 3.26v6.518c0 2.128 1.781 3.852 3.978 3.852h5.967Zm.918-4.74c-.76 0-1.377.596-1.377 1.333 0 .736.617 1.333 1.377 1.333.761 0 1.378-.597 1.378-1.333 0-.737-.617-1.334-1.378-1.334Z" fill="url(#b)"/><defs><linearGradient id="a" x1="12.481" y1="2" x2="12.481" y2="22.741" gradientUnits="userSpaceOnUse"><stop stop-color="#327EBD"/><stop offset="1" stop-color="#1565A7"/></linearGradient><linearGradient id="b" x1="19.519" y1="9.259" x2="19.519" y2="30" gradientUnits="userSpaceOnUse"><stop stop-color="#FFDA4B"/><stop offset="1" stop-color="#F9C600"/></linearGradient></defs></svg>
